X:1
T:Kempion
M:3/4
L:1/8
K:C
 D| D3/2 E/2 G2 G2| G3/2 A/2 d3 c| A3/2 c/2 e2 e2| e3 d d2| A3/2 c/2 e2 e2|\
 e2 ed d2| c c3/2 c/2 e2 C| D3/2 E/2 A3||
